packages/dnb-ui-lib/assets/icons/plant.svg

<svg width="16" height="16" viewBox="0 0 16 16" fill="none" xmlns="http://www.w3.org/2000/svg">
<path d="M7.79586 5.82322C7.79586 5.82322 6.81057 7.51046 5.38092 7.27218C2.48299 6.7892 2.96598 2.92529 2 1.47632C2.93566 1.09382 3.94857 0.938183 4.95591 1.02213C5.96324 1.10607 6.93641 1.42722 7.79586 1.95931C9.2429 2.92529 9.2429 4.37425 7.79586 5.82322ZM7.79586 5.82322C8.71779 7.01453 9.0985 8.70686 9.24483 10.1701C9.73813 8.69021 10.3574 7.71414 10.8453 7.11326M10.8453 7.11326C9.96139 6.14968 10.0015 5.19835 10.9656 4.55521C11.5626 4.18584 12.2385 3.9629 12.9381 3.90459C13.6377 3.84628 14.3412 3.95426 14.9911 4.2197C14.3175 5.22625 14.6556 7.90973 12.6431 8.24524C11.6501 8.40946 10.9656 7.2387 10.9656 7.2387C10.9237 7.19688 10.8837 7.15506 10.8453 7.11326ZM11.2637 15H7.22594C7.11459 15 7.00666 14.9616 6.92041 14.8912C6.83415 14.8208 6.77488 14.7227 6.75261 14.6136L5.97983 10.7497C5.9655 10.6795 5.96696 10.607 5.98411 10.5375C6.00126 10.4679 6.03366 10.4031 6.07897 10.3476C6.12427 10.2921 6.18135 10.2474 6.24607 10.2167C6.31079 10.186 6.38153 10.1701 6.45315 10.1701H12.0365C12.1082 10.17 12.179 10.1859 12.2438 10.2165C12.3086 10.2472 12.3658 10.2919 12.4111 10.3473C12.4565 10.4028 12.489 10.4677 12.5062 10.5373C12.5233 10.6069 12.5248 10.6795 12.5105 10.7497L11.7377 14.6136C11.7153 14.7228 11.6559 14.8208 11.5695 14.8912C11.4832 14.9616 11.3751 15 11.2637 15Z" stroke="black" stroke-width="1.5" stroke-linecap="round" stroke-linejoin="round"/>
</svg>

<svg width="16" height="16" viewBox="0 0 16 16" fill="none" xmlns="http://www.w3.org/2000/svg"><path d="M7.796 5.823S6.81 7.51 5.38 7.273C2.483 6.788 2.966 2.924 2 1.475a6.406 6.406 0 015.796.483c1.447.966 1.447 2.415 0 3.864zm0 0c.922 1.192 1.302 2.884 1.449 4.347.493-1.48 1.112-2.456 1.6-3.057m0 0c-.884-.963-.844-1.915.12-2.558a4.452 4.452 0 014.026-.335c-.673 1.006-.335 3.69-2.348 4.025-.993.164-1.677-1.006-1.677-1.006a4.008 4.008 0 01-.12-.126zM11.264 15H7.226a.483.483 0 01-.473-.386L5.98 10.75a.483.483 0 01.473-.58h5.583a.484.484 0 01.475.58l-.773 3.864a.483.483 0 01-.474.386z" stroke="#000" stroke-width="1.5" stroke-linecap="round" stroke-linejoin="round"/></svg>
